X:701
T:70. Floating from Skerry
C:Lynn Tucker
M:3/4
L:1/4
K:G
P:A
D|\
E>F G/A/|B B/A/ G|A2 B/d/|e2 g/f/|\
e>d B|B A G|F D B,|B,2 D|
E>F G/A/|B B/A/ G|A2 B/d/|e2 g/f/|
e>d B|c B A|B/G/ E/G/ (3FED|[1 E2 :|[2 E2 z|
P:B
e>f g/e/|a>g f/d/|e>f (3gfe|fdB|
e>f g/e/|a>g f/d/|[1(e3 | e3) :|[2 (e3| e2) |
